public/assets/icons/edit.svg

<svg fill="none" height="32" viewBox="0 0 32 32" width="32" xmlns="http://www.w3.org/2000/svg"><path d="m12.8287 20h-2.8287v-2.8287l7.6233-7.62333c.1251-.12498.2946-.19519.4714-.19519.1767 0 .3463.07021.4713.19519l1.886 1.88603c.125.125.1952.2945.1952.4713s-.0702.3463-.1952.4713zm-2.8287 1.3333h12v1.3333h-12z" fill="#2d3748"/></svg>

<svg width="32" height="32" viewBox="0 0 32 32" fill="none" xmlns="http://www.w3.org/2000/svg">
<path d="M12.8287 20H10V17.1713L17.6233 9.54797C17.7484 9.42299 17.9179 9.35278 18.0947 9.35278C18.2714 9.35278 18.441 9.42299 18.566 9.54797L20.452 11.434C20.577 11.559 20.6472 11.7285 20.6472 11.9053C20.6472 12.0821 20.577 12.2516 20.452 12.3766L12.8287 20ZM10 21.3333H22V22.6666H10V21.3333Z" fill="#2D3748"/>
</svg>
